storage/app/icons/phosphoricons/light/chart-bar-light.svg

<svg xmlns="http://www.w3.org/2000/svg" fill="currentColor" viewBox="0 0 256 256"><path d="M224 202h-10V40a6 6 0 0 0-6-6h-56a6 6 0 0 0-6 6v42H96a6 6 0 0 0-6 6v42H48a6 6 0 0 0-6 6v66H32a6 6 0 0 0 0 12h192a6 6 0 0 0 0-12M158 46h44v156h-44Zm-56 48h44v108h-44Zm-48 48h36v60H54Z"/></svg>

<svg xmlns="http://www.w3.org/2000/svg" viewBox="0 0 256 256" fill="currentColor"><path d="M224,202H214V40a6,6,0,0,0-6-6H152a6,6,0,0,0-6,6V82H96a6,6,0,0,0-6,6v42H48a6,6,0,0,0-6,6v66H32a6,6,0,0,0,0,12H224a6,6,0,0,0,0-12ZM158,46h44V202H158ZM102,94h44V202H102ZM54,142H90v60H54Z"/></svg>
